public/art/floors/high-grass.svg

<svg xmlns="http://www.w3.org/2000/svg" width="32" height="32" shape-rendering="crispEdges" viewBox="0 -0.5 16 16"><path stroke="#3d996a" d="M0 0h1m4 0h4m4 0h3M0 1h2m2 0h1m3 0h2m2 0h1M3 2h1m7 0h1M7 3h1m7 0h1M3 5h1m7 0h1M1 6h1m1 0h1m5 0h1m1 0h1M0 7h1m2 0h1m3 0h2m2 0h1m3 0h1M0 8h1m4 0h4m4 0h3M0 9h2m2 0h1m3 0h2m2 0h1M3 10h1m7 0h1m-5 1h1m7 0h1M3 13h1m7 0h1M1 14h1m1 0h1m5 0h1m1 0h1M0 15h1m2 0h1m3 0h2m2 0h1m3 0h1"/><path stroke="#6bb282" d="M1 0h1m2 0h1m4 0h1m2 0h1M2 1h2m3 0h1m2 0h2m3 0h1M2 2h1m4 0h1m2 0h1m4 0h1M3 3h1m2 0h1m4 0h1m2 0h1M0 4h1m2 0h1m1 0h1m2 0h1m2 0h1m1 0h1M0 5h2m2 0h1m3 0h2m2 0h1M0 6h1m1 0h1m1 0h1m2 0h2m1 0h1m1 0h1m2 0h1M4 7h1m1 0h1m5 0h1m1 0h1M1 8h1m2 0h1m4 0h1m2 0h1M2 9h2m3 0h1m2 0h2m3 0h1M2 10h1m4 0h1m2 0h1m4 0h1M3 11h1m2 0h1m4 0h1m2 0h1M0 12h1m2 0h1m1 0h1m2 0h1m2 0h1m1 0h1M0 13h2m2 0h1m3 0h2m2 0h1M0 14h1m1 0h1m1 0h1m2 0h2m1 0h1m1 0h1m2 0h1M4 15h1m1 0h1m5 0h1m1 0h1"/><path stroke="#7acca2" d="M2 0h2m6 0h2M5 2h2m6 0h2M0 3h2m2 0h2m2 0h2m2 0h2M1 4h2m1 0h1m4 0h2m1 0h1M2 5h1m3 0h2m2 0h1m3 0h2M5 6h2m6 0h2M5 7h1m7 0h1M2 8h2m6 0h2m-7 2h2m6 0h2M0 11h2m2 0h2m2 0h2m2 0h2M1 12h2m1 0h1m4 0h2m1 0h1M2 13h1m3 0h2m2 0h1m3 0h2M5 14h2m6 0h2M5 15h1m7 0h1"/><path stroke="#42C882" d="M5 1h2m6 0h2M0 2h2m2 0h1m3 0h2m2 0h1M2 3h1m7 0h1M6 4h2m6 0h2M5 5h1m7 0h1M1 7h2m6 0h2M5 9h2m6 0h2M0 10h2m2 0h1m3 0h2m2 0h1M2 11h1m7 0h1m-5 1h2m6 0h2M5 13h1m7 0h1M1 15h2m6 0h2"/></svg>

<svg xmlns="http://www.w3.org/2000/svg" width="32" height="32" viewBox="0 -0.5 16 16" shape-rendering="crispEdges">
<path stroke="#3d996a" d="M0 0h1M5 0h4M13 0h3M0 1h2M4 1h1M8 1h2M12 1h1M3 2h1M11 2h1M7 3h1M15 3h1M3 5h1M11 5h1M1 6h1M3 6h1M9 6h1M11 6h1M0 7h1M3 7h1M7 7h2M11 7h1M15 7h1M0 8h1M5 8h4M13 8h3M0 9h2M4 9h1M8 9h2M12 9h1M3 10h1M11 10h1M7 11h1M15 11h1M3 13h1M11 13h1M1 14h1M3 14h1M9 14h1M11 14h1M0 15h1M3 15h1M7 15h2M11 15h1M15 15h1" />
<path stroke="#6bb282" d="M1 0h1M4 0h1M9 0h1M12 0h1M2 1h2M7 1h1M10 1h2M15 1h1M2 2h1M7 2h1M10 2h1M15 2h1M3 3h1M6 3h1M11 3h1M14 3h1M0 4h1M3 4h1M5 4h1M8 4h1M11 4h1M13 4h1M0 5h2M4 5h1M8 5h2M12 5h1M0 6h1M2 6h1M4 6h1M7 6h2M10 6h1M12 6h1M15 6h1M4 7h1M6 7h1M12 7h1M14 7h1M1 8h1M4 8h1M9 8h1M12 8h1M2 9h2M7 9h1M10 9h2M15 9h1M2 10h1M7 10h1M10 10h1M15 10h1M3 11h1M6 11h1M11 11h1M14 11h1M0 12h1M3 12h1M5 12h1M8 12h1M11 12h1M13 12h1M0 13h2M4 13h1M8 13h2M12 13h1M0 14h1M2 14h1M4 14h1M7 14h2M10 14h1M12 14h1M15 14h1M4 15h1M6 15h1M12 15h1M14 15h1" />
<path stroke="#7acca2" d="M2 0h2M10 0h2M5 2h2M13 2h2M0 3h2M4 3h2M8 3h2M12 3h2M1 4h2M4 4h1M9 4h2M12 4h1M2 5h1M6 5h2M10 5h1M14 5h2M5 6h2M13 6h2M5 7h1M13 7h1M2 8h2M10 8h2M5 10h2M13 10h2M0 11h2M4 11h2M8 11h2M12 11h2M1 12h2M4 12h1M9 12h2M12 12h1M2 13h1M6 13h2M10 13h1M14 13h2M5 14h2M13 14h2M5 15h1M13 15h1" />
<path stroke="#42C882" d="M5 1h2M13 1h2M0 2h2M4 2h1M8 2h2M12 2h1M2 3h1M10 3h1M6 4h2M14 4h2M5 5h1M13 5h1M1 7h2M9 7h2M5 9h2M13 9h2M0 10h2M4 10h1M8 10h2M12 10h1M2 11h1M10 11h1M6 12h2M14 12h2M5 13h1M13 13h1M1 15h2M9 15h2" />
</svg>
